src/assets/img/pay1.svg

<svg width="24" height="24" viewBox="0 0 24 24" fill="none" xmlns="http://www.w3.org/2000/svg">
<g id="choira">
<g id="Group 30">
<path id="Vector 5 (Stroke)" fill-rule="evenodd" clip-rule="evenodd" d="M20.4398 17.1703C20.9872 17.7 20.9554 18.53 20.3686 19.0242C17.2119 21.6833 13.8526 22.2913 10.9378 21.8857C8.0997 21.4908 5.76613 20.1514 4.44833 19.0128C3.86861 18.5119 3.84845 17.6815 4.4033 17.1582C4.95815 16.6348 5.87791 16.6166 6.45763 17.1175C7.43105 17.9586 9.23937 18.9949 11.3805 19.2929C13.4449 19.5802 15.9023 19.1983 18.3862 17.1061C18.9729 16.6118 19.8923 16.6406 20.4398 17.1703Z" fill="#1E1E1E"/>
<path id="choira_2" d="M4.43164 9.60744C4.43164 8.17123 4.76897 6.88088 5.44363 5.7364C6.14078 4.59191 7.08531 3.68306 8.27721 3.00984C9.4916 2.33661 10.8859 2 12.4601 2C14.0568 2 15.4399 2.33661 16.6093 3.00984C17.8012 3.68306 18.7232 4.59191 19.3754 5.7364C20.0276 6.88088 20.3537 8.17123 20.3537 9.60744C20.3537 11.0436 20.0276 12.3452 19.3754 13.5121C18.7232 14.6566 17.8012 15.5655 16.6093 16.2387C15.4174 16.9119 14.0231 17.2485 12.4264 17.2485C10.8747 17.2485 9.4916 16.9456 8.27721 16.3397C7.08531 15.7113 6.14078 14.8249 5.44363 13.6804C4.76897 12.536 4.43164 11.1783 4.43164 9.60744ZM8.24348 9.6411C8.24348 10.4938 8.42339 11.2681 8.78321 11.9637C9.14303 12.6369 9.62654 13.1755 10.2337 13.5795C10.8634 13.961 11.5718 14.1517 12.3589 14.1517C13.5958 14.1517 14.5965 13.7253 15.3612 12.8726C16.1258 11.9974 16.5081 10.9202 16.5081 9.6411C16.5081 8.36197 16.1258 7.28481 15.3612 6.40962C14.5965 5.53443 13.5958 5.09683 12.3589 5.09683C11.5718 5.09683 10.8634 5.31002 10.2337 5.7364C9.62654 6.14033 9.14303 6.69013 8.78321 7.3858C8.42339 8.05902 8.24348 8.81079 8.24348 9.6411Z" fill="#FFC701"/>
</g>
</g>
</svg>

<svg width="24" height="24" fill="none" xmlns="http://www.w3.org/2000/svg"><path fill-rule="evenodd" clip-rule="evenodd" d="M20.44 17.17c.547.53.515 1.36-.071 1.854-3.157 2.66-6.516 3.267-9.431 2.862-2.838-.395-5.172-1.735-6.49-2.873-.58-.501-.6-1.332-.045-1.855.555-.523 1.475-.541 2.055-.04.973.84 2.781 1.877 4.922 2.175 2.065.287 4.522-.095 7.006-2.187.587-.494 1.506-.465 2.054.064Z" fill="#1E1E1E"/><path d="M4.432 9.607c0-1.436.337-2.726 1.012-3.87A7.679 7.679 0 0 1 8.277 3.01C9.492 2.337 10.886 2 12.46 2c1.597 0 2.98.337 4.15 1.01 1.191.673 2.113 1.582 2.765 2.726.653 1.145.979 2.435.979 3.871 0 1.437-.326 2.738-.979 3.905-.652 1.145-1.574 2.053-2.766 2.727-1.192.673-2.586 1.01-4.183 1.01-1.551 0-2.934-.303-4.149-.91a7.175 7.175 0 0 1-2.833-2.659c-.675-1.144-1.012-2.502-1.012-4.073Zm3.811.034c0 .853.18 1.627.54 2.323.36.673.844 1.211 1.45 1.615.63.382 1.339.573 2.126.573 1.237 0 2.238-.427 3.002-1.28.765-.875 1.147-1.952 1.147-3.23 0-1.28-.382-2.357-1.147-3.232-.764-.876-1.765-1.313-3.002-1.313-.787 0-1.496.213-2.125.64a4.32 4.32 0 0 0-1.45 1.649c-.36.673-.54 1.425-.54 2.255Z" fill="#FFC701"/></svg>
